X: 241
T:Bourrée du gagne-pain
M:3/4
L:1/8
Q:90
C:trad
R:Bourrée à 3 temps
O:France
A:Morvan
Z:S. Piron
K:C
e/2f/2|ga/2g/2f/2e/2|g2 d/2e/2|f g/2f/2e/2d/2|
ece/2f/2|ga/2g/2f/2e/2|g2 d/2e/2|f g/2f/2e/2d/2|c2:|
|:e|dge|c2d/2e/2|fg/2f/2e/2d/2|ece|dge|c2d/2e/2|fg/2f/2e/2d/2|c2:||
W:
W: From "Falaleiro" http://home.t-online.de/home/pheld/homepage.htm

